dist/svg/u1F948.svg

<?xml version="1.0" encoding="UTF-8"?><svg id="a" xmlns="http://www.w3.org/2000/svg" viewBox="0 0 40 40"><rect width="40" height="40" fill="none"/><g><g><path d="M17.547,19.789h7.226c.369,0,.707-.209,.871-.541l7.601-15.345c.32-.646-.15-1.403-.871-1.403h-7.226c-.369,0-.707,.209-.871,.541l-7.601,15.345c-.32,.646,.15,1.403,.871,1.403Z" fill="#1e6ef4"/><path d="M22.453,19.789h-7.226c-.369,0-.707-.209-.871-.541L6.755,3.903c-.32-.646,.15-1.403,.871-1.403h7.226c.369,0,.707,.209,.871,.541l7.601,15.345c.32,.646-.15,1.403-.871,1.403Z" fill="#4592fb"/><circle cx="20" cy="24.378" r="13.122" fill="#8595aa"/><circle cx="20" cy="24.378" r="10.497" fill="#abb7c7"/></g><path d="M19.993,18.131c2.815,0,4.122,1.587,4.122,3.656,0,1.586-.887,2.66-2.116,3.842l-2.364,2.256h4.527v2.084h-7.981v-1.541l3.874-3.842c1.229-1.214,1.494-1.804,1.494-2.629,0-1.151-.654-1.728-1.572-1.728-.933,0-1.541,.716-1.541,1.728l-2.598-.016c.063-2.146,1.789-3.811,4.155-3.811Z" fill="#fff"/></g></svg>

<svg id="Layer_1" data-name="Layer 1" xmlns="http://www.w3.org/2000/svg" viewBox="0 0 40 40"><defs><style>.cls-1{fill:none;}.cls-2{fill:#1e6ef4;}.cls-3{fill:#4592fb;}.cls-4{fill:#8595aa;}.cls-5{fill:#abb7c7;}.cls-6{fill:#fff;}</style></defs><rect class="cls-1" width="40" height="40"/><path class="cls-2" d="M17.547,19.789h7.226a.973.973,0,0,0,.871-.541L33.245,3.9a.972.972,0,0,0-.871-1.4H25.148a.97.97,0,0,0-.87.541l-7.6,15.344A.972.972,0,0,0,17.547,19.789Z"/><path class="cls-3" d="M22.453,19.789H15.227a.973.973,0,0,1-.871-.541L6.755,3.9a.972.972,0,0,1,.871-1.4h7.226a.97.97,0,0,1,.87.541l7.6,15.344A.972.972,0,0,1,22.453,19.789Z"/><circle class="cls-4" cx="20" cy="24.378" r="13.122"/><circle class="cls-5" cx="20" cy="24.378" r="10.497"/><path class="cls-6" d="M19.993,18.131c2.815,0,4.122,1.587,4.122,3.656,0,1.586-.886,2.66-2.116,3.843l-2.364,2.256h4.527V29.97H16.181V28.43l3.874-3.843c1.229-1.214,1.494-1.8,1.494-2.629a1.519,1.519,0,0,0-1.572-1.727,1.559,1.559,0,0,0-1.541,1.727l-2.6-.016A3.962,3.962,0,0,1,19.993,18.131Z"/></svg>
